X:1 
T:Bundle and Go
C:Sharon Shannon
R:jig
Z:C. McGrew
M:6/8
Q:3/8=120
K:Em
E2E EDB,| G3-GAB| A2A AGA| d3-d2 e|
 dBG GAB| AFD DEF| GFE FED| E3 E3 :|
Bee edB| d3 f3| e3 edB| d3-dde|
dBG GAB| AFD DEF| GFE FED| E3 E3 :|
